%
(HOLE_38)
( OPTIMUM BF20 EB)
( Erwin Bejsta, May 2020 )
(T10  D=10. CR=0. - ZMIN=-14. - FLAT END MILL)
N10 G90 G94 G17 G91.1
N15 G21
(2D POCKET)
N20 T10 M6
N25 S1000 M3
(MSG, Spindle 1000)
O<wait-for-button> call
(N30 G54)
N35 G0 X8.844 Y-3.842 (Start Position)
(N40 G43 Z15. H10) (Tool offset)
N45 G0 Z3.
N50 G1 Z1.499 F243.
(Plunge)
N55 G2 X8.612 Y-4. Z0.805 I-2.794 J3.842
N60 X8.011 Y-4.326 Z0.5 I-2.562 J4.
N65 X4.089 Y4.326 Z-0.021 I-1.961 J4.326
N70 X8.011 Y-4.326 Z-0.542 I1.961 J-4.326
N75 X4.089 Y4.326 Z-1.063 I-1.961 J4.326
N80 X8.011 Y-4.326 Z-1.584 I1.961 J-4.326
N85 X4.089 Y4.326 Z-2.106 I-1.961 J4.326
N90 X8.011 Y-4.326 Z-2.627 I1.961 J-4.326
N95 X4.089 Y4.326 Z-3.148 I-1.961 J4.326
N100 X8.011 Y-4.326 Z-3.669 I1.961 J-4.326
N105 X1.3 Y0. Z-4. I-1.961 J4.326
(Cut)
N110 X1.7 I0.2 J0.
N115 X-1.7 I-1.7 J0.
N120 X4.7 I3.2 J0.
N125 X-4.7 I-4.7 J0.
N130 X7.7 I6.2 J0.
N135 X-7.7 I-7.7 J0.
N140 X10.7 I9.2 J0.
N145 X-10.7 I-10.7 J0.
N150 X13.7 I12.2 J0.
N155 X-13.7 I-13.7 J0.
N160 X13.7 I13.7 J0.
N165 X13.119 Y-0.493 I-0.5 J0.
N170 G1 X7.607 Y0.412
N175 X2.232 Y1.583
(Plunge)
N180 G2 X1.902 Y2.315 I0.107 J0.489
N185 X10.198 Y-2.315 Z-4.521 I4.148 J-2.315
N190 X1.902 Y2.315 Z-5.042 I-4.148 J2.315
N195 X10.198 Y-2.315 Z-5.563 I4.148 J-2.315
N200 X1.3 Y0. Z-6. I-4.148 J2.315
(Cut)
N205 X1.7 I0.2 J0.
N210 X-1.7 I-1.7 J0.
N215 X4.7 I3.2 J0.
N220 X-4.7 I-4.7 J0.
N225 X7.7 I6.2 J0.
N230 X-7.7 I-7.7 J0.
N235 X10.7 I9.2 J0.
N240 X-10.7 I-10.7 J0.
N245 X13.7 I12.2 J0.
N250 X-13.7 I-13.7 J0.
N255 X13.7 I13.7 J0.
N260 X13.119 Y-0.493 I-0.5 J0.
N265 G1 X7.607 Y0.412
N270 X2.232 Y1.583
(Plunge)
N275 G2 X1.902 Y2.315 I0.107 J0.489
N280 X10.198 Y-2.315 Z-6.521 I4.148 J-2.315
N285 X1.902 Y2.315 Z-7.042 I-4.148 J2.315
N290 X10.198 Y-2.315 Z-7.563 I4.148 J-2.315
N295 X1.3 Y0. Z-8. I-4.148 J2.315
(Cut)
N300 X1.7 I0.2 J0.
N305 X-1.7 I-1.7 J0.
N310 X4.7 I3.2 J0.
N315 X-4.7 I-4.7 J0.
N320 X7.7 I6.2 J0.
N325 X-7.7 I-7.7 J0.
N330 X10.7 I9.2 J0.
N335 X-10.7 I-10.7 J0.
N340 X13.7 I12.2 J0.
N345 X-13.7 I-13.7 J0.
N350 X13.7 I13.7 J0.
N355 X13.119 Y-0.493 I-0.5 J0.
N360 G1 X7.607 Y0.412
N365 X2.232 Y1.583
(Plunge)
N370 G2 X1.902 Y2.315 I0.107 J0.489
N375 X10.198 Y-2.315 Z-8.521 I4.148 J-2.315
N380 X1.902 Y2.315 Z-9.042 I-4.148 J2.315
N385 X10.198 Y-2.315 Z-9.563 I4.148 J-2.315
N390 X1.3 Y0. Z-10. I-4.148 J2.315
(Cut)
N395 X1.7 I0.2 J0.
N400 X-1.7 I-1.7 J0.
N405 X4.7 I3.2 J0.
N410 X-4.7 I-4.7 J0.
N415 X7.7 I6.2 J0.
N420 X-7.7 I-7.7 J0.
N425 X10.7 I9.2 J0.
N430 X-10.7 I-10.7 J0.
N435 X13.7 I12.2 J0.
N440 X-13.7 I-13.7 J0.
N445 X13.7 I13.7 J0.
N450 X13.119 Y-0.493 I-0.5 J0.
N455 G1 X7.607 Y0.412
N460 X2.232 Y1.583
(Plunge)
N465 G2 X1.902 Y2.315 I0.107 J0.489
N470 X10.198 Y-2.315 Z-10.521 I4.148 J-2.315
N475 X1.902 Y2.315 Z-11.042 I-4.148 J2.315
N480 X10.198 Y-2.315 Z-11.563 I4.148 J-2.315
N485 X1.3 Y0. Z-12. I-4.148 J2.315
(Cut)
N490 X1.7 I0.2 J0.
N495 X-1.7 I-1.7 J0.
N500 X4.7 I3.2 J0.
N505 X-4.7 I-4.7 J0.
N510 X7.7 I6.2 J0.
N515 X-7.7 I-7.7 J0.
N520 X10.7 I9.2 J0.
N525 X-10.7 I-10.7 J0.
N530 X13.7 I12.2 J0.
N535 X-13.7 I-13.7 J0.
N540 X13.7 I13.7 J0.
N545 X13.119 Y-0.493 I-0.5 J0.
N550 G1 X7.607 Y0.412
N555 X2.232 Y1.583
(Plunge)
N560 G2 X1.902 Y2.315 I0.107 J0.489
N565 X10.198 Y-2.315 Z-12.521 I4.148 J-2.315
N570 X1.902 Y2.315 Z-13.042 I-4.148 J2.315
N575 X10.198 Y-2.315 Z-13.563 I4.148 J-2.315
N580 X1.3 Y0. Z-14. I-4.148 J2.315
(Cut)
N585 X1.7 I0.2 J0.
N590 X-1.7 I-1.7 J0.
N595 X4.7 I3.2 J0.
N600 X-4.7 I-4.7 J0.
N605 X7.7 I6.2 J0.
N610 X-7.7 I-7.7 J0.
N615 X10.7 I9.2 J0.
N620 X-10.7 I-10.7 J0.
N625 X13.7 I12.2 J0.
N630 X-13.7 I-13.7 J0.
N635 X14. I13.85 J0.
N640 X-14. I-14. J0.
N645 X14. I14. J0.
N650 X13.76 Y-0.65 Z-13.707 I-1. J0.
N655 X13.54 Y-0.841 Z-13. I-0.76 J0.65
( Clearance )
N660 G0 Z15.
N665 M30
%
