%
(NEMA34_POCKET)
(WCS AT CENTRE)
(Erwin Bejsta May 2020)
( OPTIMUM BF20LV)
(T10  D=10. CR=0. - ZMIN=-2. - FLAT END MILL)
N10 G90 (absolute distance mode)
N11 G94 (Feed rate mm/min)
N12 G17 (XY plane)
N13 G91.1 (Arc distance mode incremental for I J K)
N15 G21 (mm units)
(2D POCKET1)
N20 T10 M6 (Tool change #10)
N25 S9700 M3 (Spindle On)
(N30 G57 - Select Coordinate system)
N35 G0 X-4.317 Y4.716 (Start position)
(N40 G43 Z17. H10)
 (Enable Tool length offset)
N45 G0 Z7.(Z start height)
(Z down curve )
N50 G1 Z5.499 F2328.
N55 X-4.285 Y4.72 Z5.246
N60 X-4.19 Y4.73 Z5.01
N65 X-4.038 Y4.741 Z4.805
N70 X-3.839 Y4.749 Z4.645
N75 X-3.606 Y4.748 Z4.541
(Z spiral plunge to full depth in 6.5 cirles)
(each line represents a half cirle)
N80 G2 X-3.354 Y4.733 Z4.5 I-0.144 J-4.748
N85 X-4.146 Y-4.733 Z3.979 I-0.396 J-4.733
N90 X-3.354 Y4.733 Z3.458 I0.396 J4.733
N95 X-4.146 Y-4.733 Z2.937 I-0.396 J-4.733
N100 X-3.354 Y4.733 Z2.416 I0.396 J4.733
N105 X-4.146 Y-4.733 Z1.894 I-0.396 J-4.733
N110 X-3.354 Y4.733 Z1.373 I0.396 J4.733
N115 X-4.146 Y-4.733 Z0.852 I-0.396 J-4.733
N120 X-3.354 Y4.733 Z0.331 I0.396 J4.733
N125 X-4.146 Y-4.733 Z-0.19 I-0.396 J-4.733
N130 X-3.354 Y4.733 Z-0.711 I0.396 J4.733
N135 X-4.146 Y-4.733 Z-1.232 I-0.396 J-4.733
N140 X-3.354 Y4.733 Z-1.753 I0.396 J4.733
(XY spiral outwards)
N145 X1. Y0. Z-2. I-0.396 J-4.733
N150 X-1. I-1. J0.
N155 X3. I2. J0.
N160 X-3. I-3. J0.
N165 X5. I4. J0.
N170 X-5. I-5. J0.
N175 X7. I6. J0.
N180 X-7. I-7. J0.
N185 X9. I8. J0.
N190 X-9. I-9. J0.
N195 X11. I10. J0.
N200 X-11. I-11. J0.
N205 X13. I12. J0.
N210 X-13. I-13. J0.
N215 X15. I14. J0.
N220 X-15. I-15. J0.
N225 X17. I16. J0.
N230 X-17. I-17. J0.
N235 X19. I18. J0.
N240 X-19. I-19. J0.
N245 X21. I20. J0.
N250 X-21. I-21. J0.
N255 X23. I22. J0.
N260 X-23. I-23. J0.
N265 X25. I24. J0.
N270 X-25. I-25. J0.
N275 X27. I26. J0.
N280 X-27. I-27. J0.
N285 X29. I28. J0.
N290 X-29. I-29. J0.
N295 X31. I30. J0.
N300 X-31. I-31. J0.
N305 X31.5 I31.25 J0.
N310 X-31.5 I-31.5 J0.
N315 X31.5 I31.5 J0.
N320 X31.467 Y-0.256 Z-1.966 I-1. J0.
(Z back out)
N325 G1 X31.429 Y-0.37 Z-1.916
N330 X31.378 Y-0.479 Z-1.866
N335 X31.323 Y-0.568 Z-1.787
N340 X31.26 Y-0.65 Z-1.707
N345 X31.206 Y-0.708 Z-1.604
N350 X31.148 Y-0.762 Z-1.5
N355 X31.069 Y-0.823 Z-1.259
N360 X31.04 Y-0.841 Z-1.
(Z clearance)
N365 G0 Z17.
N370 M30
%

