(radius cutting)
(Erwin Bejsta, Sep 2020)
(OPTIMUM BF20 EB)
( cut 5mm radius on X0 Y0 edge)
(T1  D=10 CR=0. - ZMIN=-4. - END MILL)
#100 = 1 (initialise counter)
#101 = 0.5 (cutting depth)
o101 while [#100 LT 25]
  #103 = -[#100 * #101] (cutting depth)
  G0 Z5 (clear Z)
  G0 X6.5 Y6.5 (lead-in start)
  G0 Z#103 (Z cutting position)
  F100 (cutting rate)
  G1 X5.5 Y5.5 (Radius start)
  G3 X-5.5 Y-5.5 R11 (Radius end/cut)
  G1 X-6.5 Y-6.5 (lead out)
  G0 Z5 (clear Z)
  #100 = [#100+1] (increment the test counter)
o101 endwhile
(finishing cut)
G0 X7 Y7 (lead-in start)
G0 Z#103 (Z cutting)
F50
G1 X5 Y5 (radius start)
G3 X-5 Y-5 R10 (radius end/cut)
G1 X-6 Y-6 (lead out)
G0 Z5 (clear Z)

